X:1
T:Title
%%score 1 { 2 | 3 }
L:1/8
Q:1/4=90
M:3/4
K:G
V:1 treble nm="Grand Piano, Soprano"
V:2 bass nm="Choir Pad, Liberia, 87.87 D"
V:3 bass 
V:1
 [DB][Dc] [Dd]3 [DG] | [DF][DG] [GB] [FA]3 | [DA][DB] [Dc]3 [DE] | [DF]>D [DB]4 | %4
w: By~William~James~Kirkpatrick,~1894 * * *||||
 [DB][Dc] [Dd]3 [DG] | [DF][DG] [GB] [FA]3 | [EA][EB] [Ec]3 [CE] | [CF]>[CD] [B,G]4 | %8
w: ||||
 [Ac][GB] [FA]3 D | [DG][DA] [DB]2 [DB]2 | [Ac][GB] [FA]3 [FA] | [GB][G^c] [Fd]4 | %12
w: ||||
 [Bd][Ac] [GB]3 [Gd] | [Fc][=FB] [EA]2 [CE]2 | [CF][CE] [B,D][Dd] [GB]2 | [FA]2 [DG]4- | %16
w: ||||
 [DG]4 z2 |] %17
w: |
V:2
 G,A, B,3 D | CB, D D3 | F,G, A,3 A, | A,>F, G,4 | G,A, B,3[K:treble] D | CB, D D3 | A,^G, A,3 A, | %7
 A,>F, G,4 | z2 DD DF, | G,F, G,2 G,2 | z2[K:treble] DD DD | ^CA, A,4 | z2 DD DD | %13
 DD C2[K:bass] G,2 | G,G, G,B, D2 | C2 B,4- | B,4 z2 |] %17
V:3
 z G, G,3 B, | A,G, D, D,3 | D,D, D,3 D, | D,>D, G,,4 | z G, G,3 B, | A,G, D, D,3 | %6
 C,B,, A,,3 A,, | D,>D, [G,,D,]4 | z2 D,D, D,C, | B,,D, z2 z2 | z2 A,A, A,A, | .A,2 D,4 | %12
 z2 G,G, G,B, | A,G, C,2 C,2 | C,C, D,D, D,2 | D,2 [G,,G,]4- | [G,,G,]4 z2 |] %17

